dhis-2/dhis-support/dhis-support-system/src/main/resources/SVGs/hot_meal_negative.svg

<svg width="48" height="48" viewBox="0 0 48 48" fill="none" xmlns="http://www.w3.org/2000/svg">
<path fill-rule="evenodd" clip-rule="evenodd" d="M0.132808 0.000189998C0.0593613 0.000189998 0 0.0595513 0 0.132998V47.8664C0 47.9404 0.0593613 47.9994 0.132808 47.9994H47.8662C47.9402 47.9994 47.9992 47.9404 47.9992 47.8664V0.132998C47.9992 0.0593613 47.9402 0 47.8662 0L0.132808 0.000189998ZM5.73434 4.00014C10.3165 9.15508 3.42517 8.52758 5.73434 13C1.1522 7.84509 7.29352 9.87877 5.73434 4.00014ZM11.8398 4.00014C16.4219 9.15508 9.53059 8.52758 11.8398 13C7.25762 7.84509 13.3989 9.87877 11.8398 4.00014ZM17.9432 4.00014C22.5253 9.15508 15.634 8.52758 17.9432 13C13.361 7.84509 19.5024 9.87877 17.9432 4.00014ZM24.0486 4.00014C28.6308 9.15508 21.7394 8.52758 24.0486 13C19.4665 7.84509 25.6078 9.87877 24.0486 4.00014ZM30.152 4.00014C34.7342 9.15508 27.8429 8.52758 30.152 13C25.5699 7.84509 31.7112 9.87877 30.152 4.00014ZM36.2575 4.00014C40.8396 9.15508 33.9483 8.52758 36.2575 13C31.6753 7.84509 37.8166 9.87877 36.2575 4.00014ZM42.3609 4.00014C46.943 9.15508 40.0517 8.52758 42.3609 13C37.7787 7.84509 43.9201 9.87877 42.3609 4.00014ZM4.04436 17H43.9699C43.744 22.1454 41.5418 27.0054 37.822 30.5676C34.1022 34.1298 29.1515 36.1197 24.0011 36.1227C18.8528 36.1166 13.9051 34.1254 10.1879 30.5635C6.47061 27.0016 4.27011 22.1433 4.04436 17ZM4.1303 39.9997H43.8638C43.9378 39.9997 43.9968 40.0587 43.9968 40.1327V43.867C43.9968 43.941 43.9378 44 43.8638 44H4.1303C4.0567 44 3.9973 43.941 3.9973 43.867V40.1327C3.9973 40.0587 4.0567 39.9997 4.1301 39.9997H4.1303Z" fill="#333333"/>
</svg>

<?xml version="1.0" encoding="UTF-8" standalone="no"?>
<!-- Created with Inkscape (http://www.inkscape.org/) -->
<svg id="svg8" xmlns:rdf="http://www.w3.org/1999/02/22-rdf-syntax-ns#" xmlns="http://www.w3.org/2000/svg" xmlns:osb="http://www.openswatchbook.org/uri/2009/osb" height="48" width="48" version="1.1" xmlns:cc="http://creativecommons.org/ns#" viewBox="0 0 12.7 12.7" xmlns:dc="http://purl.org/dc/elements/1.1/">
 <title id="title4753">UIO-icon</title>
 <metadata id="metadata5">
  <rdf:RDF>
   <cc:Work rdf:about="">
    <dc:format>image/svg+xml</dc:format>
    <dc:type rdf:resource="http://purl.org/dc/dcmitype/StillImage"/>
    <dc:title>UIO-icon</dc:title>
    <dc:creator>
     <cc:Agent>
      <dc:title>Joaquín Urbano</dc:title>
     </cc:Agent>
    </dc:creator>
    <dc:rights>
     <cc:Agent>
      <dc:title>GPL</dc:title>
     </cc:Agent>
    </dc:rights>
   </cc:Work>
  </rdf:RDF>
 </metadata>
 <g id="layer1" fill="#333" transform="translate(0,-284.3)">
  <path id="rect915" d="m0.13281 0c-0.073448 0-0.13281 0.059362-0.13281 0.13281v47.734c0 0.074 0.059362 0.133 0.13281 0.133h47.734c0.074 0 0.133-0.059 0.133-0.133v-47.734c0-0.073638-0.059-0.133-0.133-0.133zm5.6016 4c4.5822 5.155-2.3092 4.5275 0 9-4.5822-5.155 1.5592-3.1213 0-9zm6.1055 0c4.5822 5.155-2.3092 4.5275 0 9-4.5822-5.155 1.5592-3.1213 0-9zm6.1035 0c4.5822 5.155-2.3092 4.5275 0 9-4.5822-5.155 1.5592-3.1213 0-9zm6.1055 0c4.5822 5.155-2.3092 4.5275 0 9-4.5822-5.155 1.5592-3.1213 0-9zm6.1035 0c4.5822 5.155-2.3092 4.5275 0 9-4.5822-5.155 1.5592-3.1213 0-9zm6.1055 0c4.5822 5.155-2.3092 4.5275 0 9-4.5822-5.155 1.5592-3.1213 0-9zm6.1035 0c4.5822 5.155-2.3092 4.5275 0 9-4.5822-5.155 1.5592-3.1213 0-9zm-38.317 13h39.926a20 20 0 0 1 -19.969 19.123 20 20 0 0 1 -19.957 -19.123zm0.085938 23h39.734c0.074 0 0.133 0.059 0.133 0.133v3.7344c0 0.074-0.059 0.133-0.133 0.133h-39.734c-0.0736 0-0.133-0.059-0.133-0.133v-3.7344c0-0.074 0.0594-0.133 0.1328-0.133z" fill-rule="evenodd" transform="matrix(.26458 0 0 .26458 0 284.3)"/>
 </g>
</svg>
